src/assets/icons/time,fancy,sun-day-time.svg

<svg width="48" height="48" viewBox="0 0 48 48" fill="none" xmlns="http://www.w3.org/2000/svg">
<path fill-rule="evenodd" clip-rule="evenodd" d="M23.0066 2.44398C23.5366 1.85201 24.4634 1.85201 24.9934 2.44398L29.9913 8.02684C30.2614 8.32854 30.6539 8.49115 31.0582 8.46879L38.54 8.05518C39.3333 8.01132 39.9887 8.66669 39.9448 9.46001L39.5312 16.9418C39.5088 17.3461 39.6715 17.7386 39.9732 18.0087L45.556 23.0066C46.148 23.5366 46.148 24.4634 45.556 24.9934L39.9732 29.9913C39.6715 30.2614 39.5088 30.6539 39.5312 31.0582L39.9448 38.54C39.9887 39.3333 39.3333 39.9887 38.54 39.9448L31.0582 39.5312C30.6539 39.5088 30.2614 39.6715 29.9913 39.9732L24.9934 45.556C24.4634 46.148 23.5366 46.148 23.0066 45.556L18.0087 39.9732C17.7386 39.6715 17.3461 39.5088 16.9417 39.5312L9.46001 39.9448C8.66669 39.9887 8.01132 39.3333 8.05518 38.54L8.46879 31.0582C8.49115 30.6539 8.32854 30.2614 8.02684 29.9913L2.44398 24.9934C1.85201 24.4634 1.85201 23.5366 2.44398 23.0066L8.02684 18.0087C8.32854 17.7386 8.49115 17.3461 8.46879 16.9417L8.05518 9.46001C8.01132 8.66669 8.66669 8.01132 9.46001 8.05518L16.9418 8.46879C17.3461 8.49115 17.7386 8.32854 18.0087 8.02684L23.0066 2.44398ZM24 34.6662C29.8908 34.6662 34.6662 29.8908 34.6662 24C34.6662 18.1092 29.8908 13.3338 24 13.3338C18.1092 13.3338 13.3338 18.1092 13.3338 24C13.3338 29.8908 18.1092 34.6662 24 34.6662Z" fill="black"/>
<path opacity="0.4" d="M35 24C35 30.0751 30.0751 35 24 35C17.9249 35 13 30.0751 13 24C13 17.9249 17.9249 13 24 13C30.0751 13 35 17.9249 35 24Z" fill="black"/>
</svg>

<svg xmlns="http://www.w3.org/2000/svg" width="48" height="48" fill="none" viewBox="0 0 48 48">
  <path fill="#000" fill-rule="evenodd" d="M23.007 2.444a1.333 1.333 0 011.986 0l4.998 5.583c.27.302.663.464 1.067.442l7.482-.414a1.333 1.333 0 011.405 1.405l-.414 7.482c-.022.404.14.797.442 1.067l5.583 4.998c.592.53.592 1.456 0 1.986l-5.583 4.998c-.301.27-.464.663-.442 1.067l.414 7.482a1.333 1.333 0 01-1.405 1.405l-7.482-.414a1.333 1.333 0 00-1.067.442l-4.998 5.583a1.333 1.333 0 01-1.986 0l-4.998-5.583a1.333 1.333 0 00-1.067-.442l-7.482.414a1.333 1.333 0 01-1.405-1.405l.414-7.482a1.333 1.333 0 00-.442-1.067l-5.583-4.998a1.333 1.333 0 010-1.986l5.583-4.998c.302-.27.464-.663.442-1.067L8.055 9.46A1.333 1.333 0 019.46 8.055l7.482.414c.404.022.797-.14 1.067-.442l4.998-5.583zM24 34.666c5.89 0 10.666-4.775 10.666-10.666 0-5.89-4.775-10.666-10.666-10.666-5.89 0-10.666 4.775-10.666 10.666 0 5.89 4.775 10.666 10.666 10.666z" clip-rule="evenodd"/>
  <path fill="#000" d="M35 24c0 6.075-4.925 11-11 11s-11-4.925-11-11 4.925-11 11-11 11 4.925 11 11z" opacity=".4"/>
</svg>
